X:50
T:Kelvin Grove. CJF.050
R:air
S:C.J.Fox MS, 1829/33, Beverley,E.Yorks.
N:”The Shearing’s No’ For You” – PJH.
B:Kidson Coll.Mitchell Lib.M1805
O:England
A:East Yorkshire
Z:vmp.P J Headford 2000 & 2008
M:C
L:1/8
Q:2/4=60
K:G
“p”(G>A)|(B>dA>B) (GFED)|” Cres.”E2A2A2(G>A)|\
(B>dA>B) (GFED)|E2G2G2:|!
|:”p”(A>B)|(c>Bc>d)e2(B>c)|dBAGHA2(G>A)|\
(B>dA>B) (GFED)|E2G2G2:|

